assets/icons/home.svg

<svg width="23" height="26" viewBox="0 0 23 26" xmlns="http://www.w3.org/2000/svg">
  <path
    d="m11.5002 1.7998.6298-.64292c-.3499-.342768-.9097-.342768-1.2596 0zm-9.8 9.6-.62981-.6429-.270195.2647v.3782zm6.99999 12.8v.9c.49706 0 .9-.4029.9-.9zm5.60001 0h-.9c0 .4971.4029.9.9.9zm7-12.8h.9v-.3782l-.2702-.2647zm-18.2 13.7h5.59999v-1.8h-5.59999zm18.8298-14.3429-9.8-9.60002-1.2596 1.28585 9.8 9.59997zm-11.0596-9.60002-9.80001 9.60002 1.25961 1.2858 9.8-9.59997zm-1.27021 23.04292v-4.8h-1.8v4.8zm3.80001-4.8v4.8h1.8v-4.8zm.9 5.7h5.6v-1.8h-5.6zm7.9-2.5v-11.2h-1.8v11.2zm-21.400005-11.2v11.2h1.800005v-11.2zm10.700005 5.7c.9402 0 1.9.9131 1.9 2.3h1.8c0-2.1477-1.5474-4.1-3.7-4.1zm0-1.8c-2.15259 0-3.70001 1.9523-3.70001 4.1h1.8c0-1.3869.95981-2.3 1.90001-2.3zm8.4 9.8c1.3794 0 2.3-1.2359 2.3-2.5h-1.8c0 .5033-.333.7-.5.7zm-16.8-1.8c-.16702 0-.5-.1967-.5-.7h-1.800005c0 1.2641.920615 2.5 2.300005 2.5z"
    fill="#000" />
</svg>

<svg width="23" height="26" viewBox="0 0 23 26" fill="none" xmlns="http://www.w3.org/2000/svg">
<path d="M11.5002 1.7998L12.13 1.15688C11.7801 0.814112 11.2203 0.814112 10.8704 1.15688L11.5002 1.7998ZM1.7002 11.3998L1.07039 10.7569L0.800195 11.0216V11.3998H1.7002ZM8.70019 24.1998V25.0998C9.19725 25.0998 9.60019 24.6969 9.60019 24.1998H8.70019ZM14.3002 24.1998H13.4002C13.4002 24.6969 13.8031 25.0998 14.3002 25.0998V24.1998ZM21.3002 11.3998H22.2002V11.0216L21.93 10.7569L21.3002 11.3998ZM3.1002 25.0998H8.70019V23.2998H3.1002V25.0998ZM21.93 10.7569L12.13 1.15688L10.8704 2.44273L20.6704 12.0427L21.93 10.7569ZM10.8704 1.15688L1.07039 10.7569L2.33 12.0427L12.13 2.44273L10.8704 1.15688ZM9.60019 24.1998V19.3998H7.80019V24.1998H9.60019ZM13.4002 19.3998V24.1998H15.2002V19.3998H13.4002ZM14.3002 25.0998H19.9002V23.2998H14.3002V25.0998ZM22.2002 22.5998V11.3998H20.4002V22.5998H22.2002ZM0.800195 11.3998V22.5998H2.6002V11.3998H0.800195ZM11.5002 17.0998C12.4404 17.0998 13.4002 18.0129 13.4002 19.3998H15.2002C15.2002 17.2521 13.6528 15.2998 11.5002 15.2998V17.0998ZM11.5002 15.2998C9.34761 15.2998 7.80019 17.2521 7.80019 19.3998H9.60019C9.60019 18.0129 10.56 17.0998 11.5002 17.0998V15.2998ZM19.9002 25.0998C21.2796 25.0998 22.2002 23.8639 22.2002 22.5998H20.4002C20.4002 23.1031 20.0672 23.2998 19.9002 23.2998V25.0998ZM3.1002 23.2998C2.93318 23.2998 2.6002 23.1031 2.6002 22.5998H0.800195C0.800195 23.8639 1.72081 25.0998 3.1002 25.0998V23.2998Z" fill="#40AA54"/>
</svg>
